**harm	**harte	**timestamp	**phrase	**leadinstrument	**kern
*M4/4	*M4/4	*	*	*	*
*A:	*A:	*	*	*	*A:
1r;	N	0	.	r	1r;
=1	=1	=1	=1	=1	=1
*>A_intro	*>A_intro	*>A_intro	*>A_intro	*>A_intro	*>A_intro
1I	A:maj	0.372	newline	r	1A 1cc# 1ee
=2	=2	=2	=2	=2	=2
1-VIIe	G:maj/2	2.765	.	r	1G 1b 1dd
=3	=3	=3	=3	=3	=3
1I	A:maj	5.158	.	r	1A 1cc# 1ee
=4	=4	=4	=4	=4	=4
1-VIIe	G:maj/2	7.551	.	r	1G 1b 1dd
=5	=5	=5	=5	=5	=5
1I	A:maj	9.944	newline	r	1A 1cc# 1ee
=6	=6	=6	=6	=6	=6
1I	A:maj	12.233	.	r	1A 1cc# 1ee
=7	=7	=7	=7	=7	=7
*>B_verse	*>B_verse	*>B_verse	*>B_verse	*>B_verse	*>B_verse
1I	A:maj	14.522	newline	voice	1A 1cc# 1ee
=8	=8	=8	=8	=8	=8
1I	A:maj	16.856	.	voice	1A 1cc# 1ee
=9	=9	=9	=9	=9	=9
1I	A:maj	19.19	.	voice	1A 1cc# 1ee
=10	=10	=10	=10	=10	=10
1-VII	G:maj	21.524	.	voice	1G 1b 1dd
=11	=11	=11	=11	=11	=11
1-VII	G:maj	23.858	.	voice	1G 1b 1dd
=12	=12	=12	=12	=12	=12
1I	A:maj	26.192	newline	voice	1A 1cc# 1ee
=13	=13	=13	=13	=13	=13
1I	A:maj	28.555	.	voice	1A 1cc# 1ee
=14	=14	=14	=14	=14	=14
1I	A:maj	30.917	.	voice	1A 1cc# 1ee
=15	=15	=15	=15	=15	=15
1-VII	G:maj	33.28	.	voice	1G 1b 1dd
=16	=16	=16	=16	=16	=16
1-VII	G:maj	35.642	.	voice	1G 1b 1dd
=17	=17	=17	=17	=17	=17
1I	A:maj	38.005	newline	voice	1A 1cc# 1ee
=18	=18	=18	=18	=18	=18
1I	A:maj	40.349	.	voice	1A 1cc# 1ee
=19	=19	=19	=19	=19	=19
1I	A:maj	42.694	.	voice	1A 1cc# 1ee
=20	=20	=20	=20	=20	=20
1-VII	G:maj	45.039	.	voice	1G 1b 1dd
=21	=21	=21	=21	=21	=21
1-VII	G:maj	47.384	.	voice	1G 1b 1dd
=22	=22	=22	=22	=22	=22
*>C_chorus	*>C_chorus	*>C_chorus	*>C_chorus	*>C_chorus	*>C_chorus
1IV	D:maj	49.729	newline	voice	1D 1f# 1a
=23	=23	=23	=23	=23	=23
1V	E:maj	52.015	.	voice	1E 1g# 1b
=24	=24	=24	=24	=24	=24
1I	A:maj	54.301	.	voice	1A 1cc# 1ee
=25	=25	=25	=25	=25	=25
2IV	D:maj	56.586	.	voice	2D 2f# 2a
2V	E:maj	57.729	.	voice	2E 2g# 2b
=26	=26	=26	=26	=26	=26
1I	A:maj	58.872	newline	voice	1A 1cc# 1ee
=27	=27	=27	=27	=27	=27
1I	A:maj	61.204	.	voice	1A 1cc# 1ee
=28	=28	=28	=28	=28	=28
*>B_verse	*>B_verse	*>B_verse	*>B_verse	*>B_verse	*>B_verse
1I	A:maj	63.535	newline	voice	1A 1cc# 1ee
=29	=29	=29	=29	=29	=29
1I	A:maj	65.881	.	voice	1A 1cc# 1ee
=30	=30	=30	=30	=30	=30
1I	A:maj	68.227	.	voice	1A 1cc# 1ee
=31	=31	=31	=31	=31	=31
1-VII	G:maj	70.573	.	voice	1G 1b 1dd
=32	=32	=32	=32	=32	=32
1-VII	G:maj	72.919	.	voice	1G 1b 1dd
=33	=33	=33	=33	=33	=33
1I	A:maj	75.265	newline	voice	1A 1cc# 1ee
=34	=34	=34	=34	=34	=34
1I	A:maj	77.624	.	voice	1A 1cc# 1ee
=35	=35	=35	=35	=35	=35
1I	A:maj	79.984	.	voice	1A 1cc# 1ee
=36	=36	=36	=36	=36	=36
1-VII	G:maj	82.344	.	voice	1G 1b 1dd
=37	=37	=37	=37	=37	=37
1-VII	G:maj	84.703	.	voice	1G 1b 1dd
=38	=38	=38	=38	=38	=38
1I	A:maj	87.063	newline	voice	1A 1cc# 1ee
=39	=39	=39	=39	=39	=39
1I	A:maj	89.393	.	voice	1A 1cc# 1ee
=40	=40	=40	=40	=40	=40
1I	A:maj	91.723	.	voice	1A 1cc# 1ee
=41	=41	=41	=41	=41	=41
1-VII	G:maj	94.054	.	voice	1G 1b 1dd
=42	=42	=42	=42	=42	=42
1-VII	G:maj	96.384	.	voice	1G 1b 1dd
=43	=43	=43	=43	=43	=43
*>C_chorus	*>C_chorus	*>C_chorus	*>C_chorus	*>C_chorus	*>C_chorus
1IV	D:maj	98.714	newline	voice	1D 1f# 1a
=44	=44	=44	=44	=44	=44
1V	E:maj	101.011	.	voice	1E 1g# 1b
=45	=45	=45	=45	=45	=45
1I	A:maj	103.307	.	voice	1A 1cc# 1ee
=46	=46	=46	=46	=46	=46
2IV	D:maj	105.604	.	voice	2D 2f# 2a
2V	E:maj	106.752	.	voice	2E 2g# 2b
=47	=47	=47	=47	=47	=47
1I	A:maj	107.9	newline	voice	1A 1cc# 1ee
=48	=48	=48	=48	=48	=48
1I	A:maj	110.131	.	voice	1A 1cc# 1ee
=49	=49	=49	=49	=49	=49
*>C_chorus	*>C_chorus	*>C_chorus	*>C_chorus	*>C_chorus	*>C_chorus
1IV	D:maj	112.362	newline	voice	1D 1f# 1a
=50	=50	=50	=50	=50	=50
1V	E:maj	114.6	.	voice	1E 1g# 1b
=51	=51	=51	=51	=51	=51
1I	A:maj	116.837	.	voice	1A 1cc# 1ee
=52	=52	=52	=52	=52	=52
2IV	D:maj	119.075	.	voice	2D 2f# 2a
2V	E:maj	120.194	.	voice	2E 2g# 2b
=53	=53	=53	=53	=53	=53
1I	A:maj	121.313	newline	voice	1A 1cc# 1ee
=54	=54	=54	=54	=54	=54
1I	A:maj	123.565	.	voice	1A 1cc# 1ee
=55	=55	=55	=55	=55	=55
*>B2_solo	*>B2_solo	*>B2_solo	*>B2_solo	*>B2_solo	*>B2_solo
1I	A:maj	125.817	newline	guitar	1A 1cc# 1ee
=56	=56	=56	=56	=56	=56
1I	A:maj	128.107	.	guitar	1A 1cc# 1ee
=57	=57	=57	=57	=57	=57
1I	A:maj	130.398	.	guitar	1A 1cc# 1ee
=58	=58	=58	=58	=58	=58
1-VII	G:maj	132.688	.	guitar	1G 1b 1dd
=59	=59	=59	=59	=59	=59
1-VII	G:maj	134.978	.	guitar	1G 1b 1dd
=60	=60	=60	=60	=60	=60
1I	A:maj	137.268	newline	guitar	1A 1cc# 1ee
=61	=61	=61	=61	=61	=61
1I	A:maj	139.568	.	guitar	1A 1cc# 1ee
=62	=62	=62	=62	=62	=62
1I	A:maj	141.869	.	guitar	1A 1cc# 1ee
=63	=63	=63	=63	=63	=63
1-VII	G:maj	144.169	.	guitar	1G 1b 1dd
=64	=64	=64	=64	=64	=64
1-VII	G:maj	146.469	.	guitar	1G 1b 1dd
=65	=65	=65	=65	=65	=65
1I	A:maj	148.769	newline	guitar	1A 1cc# 1ee
=66	=66	=66	=66	=66	=66
1I	A:maj	151.035	.	guitar	1A 1cc# 1ee
=67	=67	=67	=67	=67	=67
1I	A:maj	153.301	.	guitar	1A 1cc# 1ee
=68	=68	=68	=68	=68	=68
1-VII	G:maj	155.567	.	guitar	1G 1b 1dd
=69	=69	=69	=69	=69	=69
1-VII	G:maj	157.833	.	guitar	1G 1b 1dd
=70	=70	=70	=70	=70	=70
*>C_chorus	*>C_chorus	*>C_chorus	*>C_chorus	*>C_chorus	*>C_chorus
1IV	D:maj	160.099	newline	voice	1D 1f# 1a
=71	=71	=71	=71	=71	=71
1V	E:maj	162.374	.	voice	1E 1g# 1b
=72	=72	=72	=72	=72	=72
1I	A:maj	164.649	.	voice	1A 1cc# 1ee
=73	=73	=73	=73	=73	=73
2IV	D:maj	166.924	.	voice	2D 2f# 2a
2V	E:maj	168.062	.	voice	2E 2g# 2b
=74	=74	=74	=74	=74	=74
1I	A:maj	169.199	newline	voice	1A 1cc# 1ee
=75	=75	=75	=75	=75	=75
1I	A:maj	171.479	.	voice	1A 1cc# 1ee
=76	=76	=76	=76	=76	=76
*>A_interlude	*>A_interlude	*>A_interlude	*>A_interlude	*>A_interlude	*>A_interlude
1I	A:maj	173.76	newline	voice	1A 1cc# 1ee
=77	=77	=77	=77	=77	=77
1I	A:maj	176.108	.	voice	1A 1cc# 1ee
=78	=78	=78	=78	=78	=78
1I	A:maj	178.457	newline	voice	1A 1cc# 1ee
=79	=79	=79	=79	=79	=79
1-VIIe	G:maj/2	180.793	.	voice	1G 1b 1dd
=80	=80	=80	=80	=80	=80
1I	A:maj	183.13	.	voice	1A 1cc# 1ee
=81	=81	=81	=81	=81	=81
1-VIIe	G:maj/2	185.467	.	voice	1G 1b 1dd
=82	=82	=82	=82	=82	=82
1I	A:maj	187.803	newline	voice	1A 1cc# 1ee
=83	=83	=83	=83	=83	=83
1I	A:maj	190.12	.	voice	1A 1cc# 1ee
=84	=84	=84	=84	=84	=84
*>B_verse	*>B_verse	*>B_verse	*>B_verse	*>B_verse	*>B_verse
1I	A:maj	192.438	newline	voice	1A 1cc# 1ee
=85	=85	=85	=85	=85	=85
1I	A:maj	194.769	.	voice	1A 1cc# 1ee
=86	=86	=86	=86	=86	=86
1I	A:maj	197.1	.	voice	1A 1cc# 1ee
=87	=87	=87	=87	=87	=87
1-VII	G:maj	199.431	.	voice	1G 1b 1dd
=88	=88	=88	=88	=88	=88
1-VII	G:maj	201.763	.	voice	1G 1b 1dd
=89	=89	=89	=89	=89	=89
1I	A:maj	204.094	newline	voice	1A 1cc# 1ee
=90	=90	=90	=90	=90	=90
1I	A:maj	206.424	.	voice	1A 1cc# 1ee
=91	=91	=91	=91	=91	=91
1I	A:maj	208.755	.	voice	1A 1cc# 1ee
=92	=92	=92	=92	=92	=92
1-VII	G:maj	211.085	.	voice	1G 1b 1dd
=93	=93	=93	=93	=93	=93
1-VII	G:maj	213.416	.	voice	1G 1b 1dd
=94	=94	=94	=94	=94	=94
1I	A:maj	215.746	newline	voice	1A 1cc# 1ee
=95	=95	=95	=95	=95	=95
1I	A:maj	218.045	.	voice	1A 1cc# 1ee
=96	=96	=96	=96	=96	=96
1I	A:maj	220.343	.	voice	1A 1cc# 1ee
=97	=97	=97	=97	=97	=97
1-VII	G:maj	222.642	.	voice	1G 1b 1dd
=98	=98	=98	=98	=98	=98
1-VII	G:maj	224.941	.	voice	1G 1b 1dd
=99	=99	=99	=99	=99	=99
*>C_chorus	*>C_chorus	*>C_chorus	*>C_chorus	*>C_chorus	*>C_chorus
1IV	D:maj	227.239	newline	voice	1D 1f# 1a
=100	=100	=100	=100	=100	=100
1V	E:maj	229.522	.	voice	1E 1g# 1b
=101	=101	=101	=101	=101	=101
1I	A:maj	231.804	.	voice	1A 1cc# 1ee
=102	=102	=102	=102	=102	=102
2IV	D:maj	234.086	.	voice	2D 2f# 2a
2V	E:maj	235.227	.	voice	2E 2g# 2b
=103	=103	=103	=103	=103	=103
1I	A:maj	236.368	newline	voice	1A 1cc# 1ee
=104	=104	=104	=104	=104	=104
1I	A:maj	238.638	.	voice	1A 1cc# 1ee
=105	=105	=105	=105	=105	=105
*>C_chorus	*>C_chorus	*>C_chorus	*>C_chorus	*>C_chorus	*>C_chorus
1IV	D:maj	240.908	newline	voice	1D 1f# 1a
=106	=106	=106	=106	=106	=106
1V	E:maj	243.114	.	voice	1E 1g# 1b
=107	=107	=107	=107	=107	=107
1I	A:maj	245.32	.	voice	1A 1cc# 1ee
=108	=108	=108	=108	=108	=108
2IV	D:maj	247.526	.	voice	2D 2f# 2a
2V	E:maj	248.629	.	voice	2E 2g# 2b
=109	=109	=109	=109	=109	=109
1I	A:maj	249.732	newline	voice	1A 1cc# 1ee
=110	=110	=110	=110	=110	=110
1I	A:maj	251.979	.	voice	1A 1cc# 1ee
=111	=111	=111	=111	=111	=111
*>C_chorus	*>C_chorus	*>C_chorus	*>C_chorus	*>C_chorus	*>C_chorus
1IV	D:maj	254.226	newline	voice	1D 1f# 1a
=112	=112	=112	=112	=112	=112
1V	E:maj	256.409	.	voice	1E 1g# 1b
=113	=113	=113	=113	=113	=113
1I	A:maj	258.591	.	voice	1A 1cc# 1ee
=114	=114	=114	=114	=114	=114
2IV	D:maj	260.774	.	voice	2D 2f# 2a
2V	E:maj	261.865	.	voice	2E 2g# 2b
=115	=115	=115	=115	=115	=115
1I	A:maj	262.957	newline	voice	1A 1cc# 1ee
=116	=116	=116	=116	=116	=116
1I	A:maj	265.137	.	voice	1A 1cc# 1ee
=117	=117	=117	=117	=117	=117
1I	A:maj	267.317	.	voice	1A 1cc# 1ee
=118	=118	=118	=118	=118	=118
1I	A:maj	269.497	.	voice	1A 1cc# 1ee
1r;	N	274.947	.	r	1r;
1r;	N	276.767	.	r	1r;
*-	*-	*-	*-	*-	*-
!!!OTL: Get Together
!!!COC: The Youngbloods
!!!BillboardChartDate: 1969/09/06, 1969/09/20
!!!BillboardPeak: 5, 5
!!!BillboardWeeksOnChart: 25, 25
!!!SampleTargetRank: 5, 8
!!!SampleActualRank: 5, 7
!!!SampleID#: 72, 1136
!!!RDF**harmony: **recip + pitch class of root + harmonic quality
!!!RDF**harte: Chris Harte's syntax, used by MIREX
!!!RDF**phrase: newline = linebreak in original McGill transcription
!!!RDF**timestamp: McGill audio timestamp in seconds
!!!RDF**leadinstrument: original McGill primary instrumentation annotation
!!!RDT: 2017/01/12/
!!!ENC: Nathaniel Condit-Schultz
!!!EST: Awating manual error checking and editing.
